workspaces/client/public/images/svg/ethereum.svg

<svg width="33" height="33" viewBox="0 0 33 33" fill="none" xmlns="http://www.w3.org/2000/svg">
<g opacity="0.8">
<path d="M16.276 9.11548L16.1777 9.44961V19.1454L16.276 19.2435L20.7767 16.5832L16.276 9.11548Z" fill="white"/>
<path d="M16.2761 9.11548L11.7754 16.5832L16.2761 19.2435V14.5375V9.11548Z" fill="white"/>
<path d="M16.2761 20.7078L16.2207 20.7754V24.2292L16.2761 24.391L20.7795 18.0488L16.2761 20.7078Z" fill="white"/>
<path d="M16.2761 24.391V20.7078L11.7754 18.0488L16.2761 24.391Z" fill="white"/>
<path d="M16.2761 19.2436L20.7767 16.5833L16.2761 14.5376V19.2436Z" fill="white"/>
<path d="M11.7754 16.5833L16.276 19.2436V14.5376L11.7754 16.5833Z" fill="white"/>
</g>
</svg>

<svg xmlns="http://www.w3.org/2000/svg" width="33" height="33" fill="none"><g fill="#fff" opacity=".8"><path d="m16.276 9.115-.098.335v9.695l.098.099 4.5-2.66z"/><path d="m16.276 9.115-4.5 7.468 4.5 2.66V9.116M16.276 20.708l-.055.067v3.454l.055.162 4.503-6.342z"/><path d="M16.276 24.391v-3.683l-4.5-2.66zM16.276 19.244l4.5-2.66-4.5-2.046z"/><path d="m11.775 16.583 4.501 2.66v-4.705z"/></g></svg>
